X:03
T:Cork Road
T:Father O'Flynn
C:Irish Jig
S:MandoZine TablEdit Archives
Z:TablEdited by Mike Stangeland for MandoZine
L:1/8
Q:1/4=160
M:6/8
K:D
 z4zA |: dAF DFA | Bed cBA | dcd efg | afd cde |
 dAF DFA | Bed cBA | dcd efg |1 fde d2A :|2 fde d2g |
 |: fdf fdf | ece ece | dcd fed | cAA A2d | BGB dBG |
 AFA FGA | Bcd efg |1 fde d2g :|2 fde d2A |
